contributed-vectors/metropolis.svg

<svg xmlns="http://www.w3.org/2000/svg" xml:space="preserve" style="fill-rule:evenodd;clip-rule:evenodd;stroke-linejoin:round;stroke-miterlimit:2" viewBox="0 0 192 192"><path d="M164.5 21.5c0-5.519-4.481-10-10-10h-133c-5.519 0-10 4.481-10 10v133c0 5.519 4.481 10 10 10h133c5.519 0 10-4.481 10-10v-133Z" style="fill:#9abeff" transform="translate(8 8)"/><path d="m44.478 68.241 60.552-15.019 1.502 3.208L43.59 74.794l.888-6.553Z" style="fill:#ececec"/><path d="m132.38 49.509-6.839 1.983-5.103 6.768-1.486-.251 2.023-5.102-9.718 2.83-5.852-8.089 2.509.054 5.11 3.422 6.672-1.841-6.739-4.606 2.398-.644 8.34 3.794 7.755-2.028c.049-.015.099-.028.15-.039l.008-.002a1.916 1.916 0 1 1 .772 3.751Z" style="fill:#fff" transform="translate(-.308 -.531)"/><path d="m138.229 83.448-118.729-29v119.833h118.729V83.448Z" style="fill:#f9de81" transform="matrix(1 0 0 .98514 0 .81)"/><path d="m146.817 86.788 25.683 6.096V172.5h-34.271V94.76l8.588-7.972Z" style="fill:#f8c18c"/><path d="m85.408 79.297-19.307-5.549v60.693l19.307 5.55V79.297Z" style="fill:#ebebeb" transform="matrix(1.03315 0 0 .90334 -2.831 13.532)"/><path d="m85.408 79.297-19.307-5.549v60.693l19.307 5.55V79.297Z" style="fill:#ebebeb" transform="matrix(1.03315 0 0 .90334 19.675 19.292)"/></svg>

<?xml version="1.0" encoding="UTF-8" standalone="no"?>
<!DOCTYPE svg PUBLIC "-//W3C//DTD SVG 1.1//EN" "http://www.w3.org/Graphics/SVG/1.1/DTD/svg11.dtd">
<svg width="100%" height="100%" viewBox="0 0 192 192" version="1.1" xmlns="http://www.w3.org/2000/svg" xmlns:xlink="http://www.w3.org/1999/xlink" xml:space="preserve" xmlns:serif="http://www.serif.com/" style="fill-rule:evenodd;clip-rule:evenodd;stroke-linejoin:round;stroke-miterlimit:2;">
    <g id="Layer1">
        <g transform="matrix(1,0,0,1,8,8)">
            <path d="M164.5,21.5C164.5,15.981 160.019,11.5 154.5,11.5L21.5,11.5C15.981,11.5 11.5,15.981 11.5,21.5L11.5,154.5C11.5,160.019 15.981,164.5 21.5,164.5L154.5,164.5C160.019,164.5 164.5,160.019 164.5,154.5L164.5,21.5Z" style="fill:rgb(154,190,255);"/>
        </g>
        <g>
            <path d="M44.478,68.241L105.03,53.222L106.532,56.43L43.59,74.794L44.478,68.241Z" style="fill:rgb(236,236,236);"/>
            <g transform="matrix(1,0,0,1,-0.307582,-0.531278)">
                <path d="M132.38,49.509L132.38,49.509L125.541,51.492L120.438,58.26L118.952,58.009L120.975,52.907L111.257,55.737L105.405,47.648L107.914,47.702L113.024,51.124L119.696,49.283L112.957,44.677L115.355,44.033L123.695,47.827L131.45,45.799C131.499,45.784 131.549,45.771 131.6,45.76L131.608,45.758C131.737,45.731 131.872,45.716 132.009,45.716C133.066,45.716 133.924,46.574 133.924,47.63C133.924,48.56 133.259,49.336 132.38,49.509Z" style="fill:white;"/>
            </g>
        </g>
        <g transform="matrix(1,0,0,0.985136,0,0.809336)">
            <path d="M138.229,83.448L19.5,54.448L19.5,174.281L138.229,174.281L138.229,83.448Z" style="fill:rgb(249,222,129);"/>
        </g>
        <path d="M146.817,86.788L172.5,92.884L172.5,172.5L138.229,172.5L138.229,94.76L146.817,86.788Z" style="fill:rgb(248,193,140);"/>
        <g>
            <g transform="matrix(1.03315,0,0,0.903339,-2.8312,13.5316)">
                <path d="M85.408,79.297L66.101,73.748L66.101,134.441L85.408,139.991L85.408,79.297Z" style="fill:rgb(235,235,235);"/>
            </g>
            <g transform="matrix(1.03315,0,0,0.903339,19.6755,19.2916)">
                <path d="M85.408,79.297L66.101,73.748L66.101,134.441L85.408,139.991L85.408,79.297Z" style="fill:rgb(235,235,235);"/>
            </g>
        </g>
    </g>
</svg>
